assets/icons/emote/wink-filled.svg

<?xml version="1.0" encoding="UTF-8" standalone="no"?>
<svg
   viewBox="0 0 24 24"
   width="24"
   height="24"
   version="1.1"
   id="svg835"
   sodipodi:docname="wink-filled.svg"
   inkscape:version="1.2 (1:1.2.1+202207142221+cd75a1ee6d)"
   xmlns:inkscape="http://www.inkscape.org/namespaces/inkscape"
   xmlns:sodipodi="http://sodipodi.sourceforge.net/DTD/sodipodi-0.dtd"
   xmlns="http://www.w3.org/2000/svg"
   xmlns:svg="http://www.w3.org/2000/svg"
   xmlns:rdf="http://www.w3.org/1999/02/22-rdf-syntax-ns#"
   xmlns:cc="http://creativecommons.org/ns#"
   xmlns:dc="http://purl.org/dc/elements/1.1/">
  <metadata
     id="metadata841">
    <rdf:RDF>
      <cc:Work
         rdf:about="">
        <dc:format>image/svg+xml</dc:format>
        <dc:type
           rdf:resource="http://purl.org/dc/dcmitype/StillImage" />
      </cc:Work>
    </rdf:RDF>
  </metadata>
  <defs
     id="defs839" />
  <sodipodi:namedview
     pagecolor="#ffffff"
     bordercolor="#666666"
     borderopacity="1"
     objecttolerance="10"
     gridtolerance="10"
     guidetolerance="10"
     inkscape:pageopacity="0"
     inkscape:pageshadow="2"
     inkscape:window-width="1920"
     inkscape:window-height="1016"
     id="namedview837"
     showgrid="true"
     inkscape:zoom="13.75"
     inkscape:cx="2.8363636"
     inkscape:cy="4.6181818"
     inkscape:window-x="0"
     inkscape:window-y="0"
     inkscape:window-maximized="1"
     inkscape:current-layer="svg835"
     inkscape:pagecheckerboard="0"
     inkscape:showpageshadow="2"
     inkscape:deskcolor="#d1d1d1">
    <inkscape:grid
       type="xygrid"
       id="grid1436" />
  </sodipodi:namedview>
  <path
     id="path993"
     style="fill:#808080;fill-opacity:1;fill-rule:evenodd;stroke:none;stroke-width:0.75;stroke-linecap:square;stroke-linejoin:round;stroke-opacity:1"
     d="M 11.953125 2.625 A 9.3749993 9.3749993 0 0 0 2.625 12 A 9.3749993 9.3749993 0 0 0 12 21.375 A 9.3749993 9.3749993 0 0 0 21.375 12 A 9.3749993 9.3749993 0 0 0 12 2.625 A 9.3749993 9.3749993 0 0 0 11.953125 2.625 z M 8.8359375 7.6054688 C 9.5338485 7.6054688 10.125 8.1966202 10.125 8.8945312 L 10.125 10.105469 C 10.125 10.803379 9.5338485 11.355469 8.8359375 11.355469 C 8.1380265 11.355469 7.5859375 10.803379 7.5859375 10.105469 L 7.5859375 8.8945312 C 7.5859375 8.1966202 8.1380265 7.6054688 8.8359375 7.6054688 z M 14.125 8.875 L 15.875 8.875 C 16.428998 8.875 16.875 9.1537507 16.875 9.5 C 16.875 9.8462493 16.428998 10.125 15.875 10.125 L 14.125 10.125 C 13.571002 10.125 13.125 9.8462493 13.125 9.5 C 13.125 9.1537507 13.571002 8.875 14.125 8.875 z M 6.375 13.875 C 8.6179866 15.504308 15.332454 15.504308 17.625 13.875 L 17.589844 14.539062 C 17.581085 14.654301 17.510652 14.931848 17.382812 15.269531 C 14.939141 16.725075 8.7523211 16.70062 6.4882812 15.193359 C 6.4199274 14.963347 6.375 14.76405 6.375 14.65625 L 6.375 13.875 z " />
</svg>

<svg width="24" height="24" xmlns="http://www.w3.org/2000/svg"><path style="fill:gray;fill-opacity:1;stroke:none;stroke-width:.75;stroke-linecap:square;stroke-linejoin:round;stroke-opacity:1" d="M11.953 2.625A9.375 9.375 0 0 0 2.625 12 9.375 9.375 0 0 0 12 21.375 9.375 9.375 0 0 0 21.375 12 9.375 9.375 0 0 0 12 2.625a9.375 9.375 0 0 0-.047 0zm-3.117 4.98c.698 0 1.289.592 1.289 1.29v1.21c0 .698-.591 1.25-1.29 1.25a1.24 1.24 0 0 1-1.25-1.25v-1.21c0-.698.553-1.29 1.25-1.29zm5.289 1.27h1.75c.554 0 1 .279 1 .625s-.446.625-1 .625h-1.75c-.554 0-1-.279-1-.625s.446-.625 1-.625zm-7.75 5c2.243 1.63 8.957 1.63 11.25 0l-.035.664c-.009.115-.08.393-.207.73-2.444 1.456-8.63 1.432-10.895-.076-.068-.23-.113-.429-.113-.537v-.781z"/></svg>
